X:1
T:Sewall, LM
T:Sewall, LM
T:Frank Sewall (1837-1915)
T:Public Domain Courtesy of the Cyber Hymnal™
C:Frank Sewall (1837-1915)
Z:Public Domain
Z:Courtesy of the Cyber Hymnal™
%%score ( 1 2 ) ( 3 4 )
L:1/8
Q:1/4=135
M:4/4
K:F
V:1 treble 
V:2 treble 
V:3 bass 
V:4 bass 
V:1
 C4 [CF]2 [EG]2 | [FA]4 [Fc]4 | [GB]4 [EG]4 | F8 | [FA]4 [FA]2 [FB]2 | [FA]4 [CF]4 | C4 [CF]4 | %7
 [EG]8 | [CF]4 F2 [EG]2 | [FA]4 [Ec]4 | [GB]4 [EG]4 | [FA]8 | [FA]4 [CF]2 D2 | C6 C2 | %14
 [CF]4 ([EG]3 F) | F8 |] %16
V:2
 C4 x4 | x8 | x8 | F8 | x8 | x8 | C4 x4 | x8 | x8 | x8 | x8 | x8 | x6 D2 | C6 C2 | x8 | F8 |] %16
V:3
 [F,A,]4 [F,A,]2 [C,C]2 | [F,C]4 [A,,C]4 | [B,,D]4 [C,C]4 | [F,A,]8 | [F,C]4 [F,C]2 [F,D]2 | %5
 [F,C]4 [F,A,]4 | [G,B,]4 [F,A,]4 | [C,C]8 | [F,A,]4 [F,A,]2 [C,C]2 | [F,C]4 [A,C]4 | %10
 [G,D]4 [C,C]4 | [F,C]8 | [F,C]4 [F,A,]2 [B,,B,]2 | [F,A,]6 [F,A,]2 | [C,A,]4 (B,3 A,) | [F,A,]8 |] %16
V:4
 x8 | x8 | x8 | x8 | x8 | x8 | x8 | x8 | x8 | x8 | x8 | x8 | x8 | x8 | x4 C,4 | x8 |] %16

